assets/svg/fa-stop-circle.svg

<svg xmlns="http://www.w3.org/2000/svg" width="100%" height="100%" viewBox="0 0 512 512"><path fill="currentColor" d="M504 256c0 137-111 248-248 248s-248-111-248-248 111-248 248-248 248 111 248 248zM56 256c0 110.5 89.5 200 200 200s200-89.5 200-200-89.5-200-200-200-200 89.5-200 200zM352 176v160c0 8.8-7.2 16-16 16h-160c-8.8 0-16-7.2-16-16v-160c0-8.8 7.2-16 16-16h160c8.8 0 16 7.2 16 16z" /></svg>

<svg xmlns="http://www.w3.org/2000/svg" width="100%" height="100%" viewBox="0 0 512 512"><path fill="currentColor" d="M504 256C504 119 393 8 256 8S8 119 8 256 119 504 256 504 504 393 504 256zM56 256C56 145.5 145.5 56 256 56S456 145.5 456 256 366.5 456 256 456 56 366.5 56 256zM352 176V336C352 344.8 344.8 352 336 352H176C167.2 352 160 344.8 160 336V176C160 167.2 167.2 160 176 160H336C344.8 160 352 167.2 352 176z" /></svg>
